X:37
T:Bob Horns. ThoH.037
Q:1/2=100
M:C
L:1/8
B:Thompson's Compleat Collection of 120 Favourite Hornpipes.
Z:Village Music Project, Simon Wilson 2016
O:England.
K:G
GBdB GBdB|c2e2-e2c2|BdBG cecA|F2A2-A2A2|
GBdB GBdB|e2g2-g2ag|{g}f2(ed){f}e2(dc)|d2d2-d2d2:|
|:de=fe defe|e2c2-c2c2|efgf efgf|f2d2-d2d2|
GBdB GBdB|c2e2-e2c2|BdBG ecBA|G2G2-G2G2:|

